X: 20621
M: 6/8
L: 1/8
K: F
V: 1 staves=3
d |\
cAF FGA | GEC CDE | FEF GFG | AFD D2d |\
cAF FGA | GEC C2c | dfd ege | fcA F2 :|
|: f/g/ |\
afd dfa | gec cde | fef d2g | g^fg c2c |\
cAF fdd | cAF fdc | BAB GcB | AFF F2 :|
V: 2
|: z |\
fdB Bdf | ecA ABc | AGA B2e | BAB A2A |\
V: 3 clef=bass middle=d
z |\
f3 f3 | c3 c3 | f3 c3 | f3 B3 |\
f3 f3 | c3 c3 | b3 c'3 | fff f2 :|
|: z |\
f3 f3 | c3 c3 | f3 B2z | c3 c3 |\
f3 f3 | f3 f3 | B3 c3 | fff f2 :|


